src/actions/22/view-financial-account-loan-closed.svg

<svg version="1.1" viewBox="0 0 22 22" xmlns="http://www.w3.org/2000/svg"><style type="text/css" id="current-color-scheme">.ColorScheme-NegativeText { color: #d19494; }.ColorScheme-Text { color: #363636; }</style>
    <path d="m7 4v0.8789062l1 1v-0.8789062h6v1h-5.8789062l1 1h5.8789062v5.878906l2 2v-7.878906h1v8.878906l1 1v-10.878906h-4v-2h-8zm-4 2v12h12.878906l-1-1h-7.878906v-7.8789062l-2-2v9.8789062h-1v-10h0.8789062l-1-1h-0.8789062z" fill="currentColor" class="ColorScheme-Text"/>
    <path d="M 3.7070312,2.9999999 3,3.7070311 18.292969,19 19,18.292969 Z" fill="currentColor" class="ColorScheme-NegativeText"/>
</svg>

<svg xmlns="http://www.w3.org/2000/svg" viewBox="0 0 22 22">
    <path fill="currentColor" d="M7 4v.879l1 1V5h6v1H8.121l1 1H15v5.879l2 2V7h1v8.879l1 1V6h-4V4H7zM3 6v12h12.879l-1-1H7V9.121l-2-2V17H4V7h.879l-1-1H3z" style="color:#050505;opacity:.7"/>
    <path fill="currentColor" d="M3.707 3 3 3.707 18.293 19l.707-.707Z" style="color:#d98c8c"/>
</svg>
